assets/icons/window/filled.svg

<?xml version="1.0" encoding="UTF-8" standalone="no"?>
<svg
   viewBox="0 0 24 24"
   width="24"
   height="24"
   version="1.1"
   id="svg22"
   sodipodi:docname="filled.svg"
   inkscape:version="1.2 (1:1.2.1+202207142221+cd75a1ee6d)"
   xmlns:inkscape="http://www.inkscape.org/namespaces/inkscape"
   xmlns:sodipodi="http://sodipodi.sourceforge.net/DTD/sodipodi-0.dtd"
   xmlns="http://www.w3.org/2000/svg"
   xmlns:svg="http://www.w3.org/2000/svg"
   xmlns:rdf="http://www.w3.org/1999/02/22-rdf-syntax-ns#"
   xmlns:cc="http://creativecommons.org/ns#"
   xmlns:dc="http://purl.org/dc/elements/1.1/">
  <metadata
     id="metadata28">
    <rdf:RDF>
      <cc:Work
         rdf:about="">
        <dc:format>image/svg+xml</dc:format>
        <dc:type
           rdf:resource="http://purl.org/dc/dcmitype/StillImage" />
      </cc:Work>
    </rdf:RDF>
  </metadata>
  <defs
     id="defs26" />
  <sodipodi:namedview
     pagecolor="#ffffff"
     bordercolor="#666666"
     borderopacity="1"
     objecttolerance="10"
     gridtolerance="10"
     guidetolerance="10"
     inkscape:pageopacity="0"
     inkscape:pageshadow="2"
     inkscape:window-width="1920"
     inkscape:window-height="1043"
     id="namedview24"
     showgrid="true"
     inkscape:zoom="19.445436"
     inkscape:cx="6.7882253"
     inkscape:cy="9.4109487"
     inkscape:window-x="0"
     inkscape:window-y="0"
     inkscape:window-maximized="1"
     inkscape:current-layer="g6"
     inkscape:pagecheckerboard="0"
     inkscape:showpageshadow="2"
     inkscape:deskcolor="#d1d1d1">
    <inkscape:grid
       type="xygrid"
       id="grid1448" />
    <inkscape:grid
       type="xygrid"
       id="grid824"
       dotted="true"
       spacingx="0.5"
       spacingy="0.5"
       empspacing="10" />
  </sodipodi:namedview>
  <g
     color="#000000"
     fill="#808080"
     id="g6">
    <path
       id="path347"
       style="color:#000000;fill:#808080;fill-opacity:1"
       d="M 5.4550781 3 C 4.4864992 3.00898 3.7372579 3.0732698 3.1171875 3.4453125 C 2.7038072 3.6933408 2.3972494 4.101221 2.2285156 4.6074219 C 2.0597821 5.1136228 2 5.7222246 2 6.5 L 2 7 L 22 7 L 22 6.5 C 22 5.7222246 21.94022 5.1136228 21.771484 4.6074219 C 21.602752 4.101221 21.296194 3.6933408 20.882812 3.4453125 C 20.056053 2.9492562 18.999996 3 17.5 3 L 6.5 3 C 6.1250012 3 5.7779378 2.99701 5.4550781 3 z M 2 8 L 2 17.5 C 2 18.277775 2.0597824 18.886378 2.2285156 19.392578 C 2.3972494 19.89878 2.7038072 20.306659 3.1171875 20.554688 C 3.9439481 21.050744 5.0000045 21 6.5 21 L 17.5 21 C 18.999996 21 20.056052 21.050738 20.882812 20.554688 C 21.296194 20.306659 21.602752 19.89878 21.771484 19.392578 C 21.940218 18.886378 22 18.277775 22 17.5 L 22 8 L 2 8 z " />
  </g>
</svg>

<svg width="24" height="24" xmlns="http://www.w3.org/2000/svg"><path style="color:#000;fill:gray;fill-opacity:1" d="M5.455 3c-.969.009-1.718.073-2.338.445-.413.248-.72.656-.888 1.162C2.059 5.114 2 5.722 2 6.5V7h20v-.5c0-.778-.06-1.386-.229-1.893-.168-.506-.475-.914-.888-1.162C20.056 2.95 19 3 17.5 3h-11c-.375 0-.722-.003-1.045 0zM2 8v9.5c0 .778.06 1.386.229 1.893.168.506.475.914.888 1.162C3.944 21.05 5 21 6.5 21h11c1.5 0 2.556.05 3.383-.445.413-.248.72-.656.888-1.162.17-.507.229-1.115.229-1.893V8H2z" color="#000" fill="gray"/></svg>
